INCtour-to-git/INCtour-to-git/img/icons/icon-skype.svg

<svg width="12" height="12" viewBox="0 0 12 12" fill="none" xmlns="http://www.w3.org/2000/svg">
<path d="M7.1332 5.77827C6.98004 5.67943 6.8143 5.60158 6.64043 5.54683C6.43118 5.47883 6.2186 5.42153 6.00352 5.37515C5.87018 5.34444 5.73753 5.31084 5.60566 5.27437C5.52529 5.25173 5.44751 5.2207 5.37363 5.18179C5.3076 5.14965 5.24909 5.10392 5.20195 5.04761C5.16333 4.9984 5.14303 4.93729 5.14453 4.87476C5.14453 4.7646 5.20312 4.67202 5.32324 4.59116C5.44746 4.50737 5.61562 4.46519 5.82188 4.46519C6.04453 4.46519 6.20625 4.50269 6.30293 4.57827C6.40254 4.6562 6.48926 4.76694 6.56074 4.90757C6.62285 5.01772 6.67852 5.0939 6.73301 5.14194C6.79102 5.19468 6.87422 5.22222 6.98086 5.22222C7.09863 5.22222 7.19766 5.18003 7.27676 5.09507C7.35214 5.01894 7.39464 4.91627 7.39512 4.80913C7.39512 4.69897 7.36406 4.58472 7.30488 4.47163C7.23468 4.34577 7.13958 4.23553 7.02539 4.14761C6.88337 4.03777 6.72226 3.95513 6.5502 3.90386C6.33221 3.83897 6.10552 3.80814 5.87813 3.81245C5.55586 3.81245 5.27168 3.85815 5.03262 3.94956C4.79063 4.04214 4.60254 4.1769 4.47363 4.34976C4.34405 4.52249 4.27524 4.73324 4.27793 4.94917C4.27793 5.18355 4.34063 5.38276 4.46426 5.54214C4.58555 5.69917 4.75254 5.82456 4.95879 5.91538C5.16152 6.00327 5.41465 6.0812 5.71406 6.14741C5.9332 6.19429 6.11133 6.23999 6.24199 6.28218C6.36738 6.32202 6.47109 6.38062 6.54961 6.4562C6.58688 6.49272 6.61602 6.53671 6.63511 6.58528C6.65419 6.63385 6.66279 6.68591 6.66035 6.73804C6.66035 6.88569 6.59063 7.00581 6.44766 7.10776C6.30059 7.21089 6.10547 7.26245 5.86758 7.26245C5.69414 7.26245 5.5541 7.23726 5.44922 7.18569C5.35447 7.14252 5.27162 7.07696 5.20781 6.99468C5.14132 6.90057 5.08588 6.79912 5.04258 6.69233C5.00611 6.59584 4.94821 6.50889 4.87324 6.43804C4.8032 6.37722 4.71283 6.34501 4.62012 6.3478C4.56486 6.34607 4.50981 6.35527 4.45813 6.37488C4.40644 6.39448 4.35914 6.42411 4.31895 6.46206C4.28059 6.49798 4.25011 6.54148 4.22944 6.58979C4.20876 6.6381 4.19834 6.69018 4.19883 6.74272C4.19883 6.91558 4.26094 7.09663 4.3834 7.2771C4.50469 7.45815 4.66406 7.60347 4.85801 7.71069C5.12871 7.85835 5.47559 7.93276 5.88926 7.93276C6.23379 7.93276 6.53613 7.87769 6.78926 7.77046C7.04414 7.66147 7.24102 7.50737 7.37402 7.31401C7.50758 7.11945 7.57796 6.88847 7.57559 6.65249C7.57559 6.44858 7.53633 6.2728 7.4584 6.13042C7.37997 5.98854 7.26841 5.86772 7.1332 5.77827ZM5.86523 0.23999C2.75859 0.23999 0.240234 2.75835 0.240234 5.86499C0.240234 8.97163 2.75859 11.49 5.86523 11.49C8.97188 11.49 11.4902 8.97163 11.4902 5.86499C11.4902 2.75835 8.97188 0.23999 5.86523 0.23999ZM7.21348 9.0144C6.92812 9.0144 6.65918 8.94116 6.42363 8.8105C6.24989 8.84427 6.07329 8.86115 5.89629 8.86089C4.30664 8.86089 3.01699 7.53315 3.01699 5.8978C3.01699 5.69272 3.0375 5.49351 3.07559 5.30132C2.92438 5.03716 2.84517 4.73792 2.8459 4.43355C2.8459 3.48491 3.59355 2.7144 4.51641 2.7144C4.84277 2.7144 5.14687 2.81167 5.40469 2.97866C5.56406 2.94995 5.7293 2.9353 5.89629 2.9353C7.48711 2.9353 8.77617 4.26187 8.77617 5.89839C8.77617 6.11577 8.75332 6.32847 8.70996 6.53355C8.8207 6.76382 8.8834 7.02222 8.8834 7.29702C8.88281 8.24507 8.13574 9.0144 7.21348 9.0144Z" fill="#454545"/>
</svg>

<svg width="12" height="12" fill="none" xmlns="http://www.w3.org/2000/svg"><path d="M7.133 5.778a2.037 2.037 0 00-.493-.231 6.482 6.482 0 00-.636-.172 9.447 9.447 0 01-.398-.1 1.19 1.19 0 01-.232-.093.522.522 0 01-.172-.134.27.27 0 01-.057-.173c0-.11.058-.203.178-.284.124-.084.293-.126.499-.126.223 0 .384.038.48.113.1.078.187.189.259.33.062.11.118.186.172.234.058.053.141.08.248.08a.388.388 0 00.296-.127.409.409 0 00.118-.286.73.73 0 00-.09-.337 1.062 1.062 0 00-.28-.324 1.457 1.457 0 00-.475-.244 2.209 2.209 0 00-.672-.092c-.322 0-.606.046-.845.138-.242.092-.43.227-.56.4a.979.979 0 00-.195.6c0 .234.063.433.186.592.122.157.289.283.495.373.203.088.456.166.755.232.22.047.397.093.528.135.125.04.23.099.308.174a.37.37 0 01.11.282c0 .148-.07.268-.212.37-.147.103-.343.154-.58.154a.958.958 0 01-.419-.076.643.643 0 01-.241-.191 1.502 1.502 0 01-.165-.303.681.681 0 00-.17-.254.37.37 0 00-.253-.09.42.42 0 00-.301.114.38.38 0 00-.12.28c0 .174.062.355.184.535.122.181.281.326.475.434.27.147.618.222 1.031.222.345 0 .647-.055.9-.163a1.32 1.32 0 00.585-.456 1.15 1.15 0 00.202-.662c0-.203-.04-.38-.118-.522a1.005 1.005 0 00-.325-.352zM5.865.24a5.625 5.625 0 100 11.25 5.625 5.625 0 000-11.25zm1.348 8.774c-.285 0-.554-.073-.79-.204-.173.034-.35.051-.527.05-1.59 0-2.879-1.327-2.879-2.962 0-.205.02-.404.059-.597a1.738 1.738 0 01-.23-.867c0-.95.748-1.72 1.67-1.72.327 0 .63.098.889.265a2.78 2.78 0 01.491-.044c1.591 0 2.88 1.327 2.88 2.963 0 .218-.023.43-.066.636.11.23.173.488.173.763 0 .948-.747 1.717-1.67 1.717z" fill="#454545"/></svg>
